Source/HTML/PIC/TeraLogo.svg

<?xml version="1.0" encoding="utf-8"?>
<svg width="104" height="25" viewBox="0 0 105 25" fill="none" xmlns="http://www.w3.org/2000/svg">
<path d="M29.9728 24.4597C29.9728 24.4587 29.9723 24.4577 29.9718 24.4566C29.9707 24.4535 29.9697 24.4504 29.9681 24.4479C29.9661 24.4427 29.9635 24.4375 29.9604 24.4323C29.9594 24.4292 29.9579 24.4261 29.9563 24.423C29.9522 24.4153 29.9481 24.408 29.9435 24.4008L15.3327 0.205778C15.3317 0.204227 15.3306 0.202158 15.3296 0.200607L15.3137 0.173722C15.2453 0.0687645 15.1275 0 14.9944 0C14.8622 0 14.746 0.0672141 14.6776 0.169586C14.6704 0.179927 14.6637 0.190783 14.6576 0.202158C13.6755 1.83184 12.6878 3.45843 11.6939 5.08191C11.5946 5.22357 11.5417 5.39264 11.5417 5.56533C11.5417 5.73854 11.5946 5.90709 11.6939 6.04875C13.0045 8.20012 14.3079 10.3567 15.6186 12.508C15.7255 12.6616 15.7826 12.8441 15.7826 13.0318C15.7826 13.219 15.7255 13.4015 15.6186 13.555C13.4652 17.1107 11.1807 20.8545 9.01708 24.4303C8.98777 24.4846 8.97131 24.5471 8.97131 24.6133C8.97131 24.8258 9.14202 24.9975 9.35334 24.9975H15.3846L15.3841 24.998H15.6746C15.7476 24.998 15.8155 24.9773 15.8736 24.9416C15.9317 24.9059 15.979 24.8553 16.0114 24.7953L16.0124 24.7948L16.2299 24.4298L19.1437 19.594C19.1443 19.5934 19.1437 19.5934 19.1437 19.5934C19.209 19.4735 19.335 19.3928 19.48 19.3928C19.6116 19.3928 19.7279 19.46 19.7968 19.5619C19.7993 19.566 19.8019 19.5702 19.8045 19.5743L19.807 19.5784L22.708 24.3424L22.9738 24.7844C23.0386 24.9039 23.1646 24.985 23.3101 24.985H23.487C23.5163 24.9866 23.5456 24.9871 23.5749 24.9856H29.618C29.8288 24.9856 30 24.8139 30 24.6014C30 24.5513 29.9908 24.5032 29.9728 24.4597Z" fill="white" />
<path d="M13.1433 13.7884C13.2133 13.6721 13.2832 13.5563 13.3536 13.4394C13.4405 13.3133 13.4873 13.1639 13.4873 13.0108C13.4873 12.8578 13.4405 12.7073 13.3536 12.5822L12.0553 10.467L10.5704 8.0468C10.503 7.93719 10.3822 7.86377 10.2449 7.86377C10.0994 7.86377 9.97242 7.94443 9.90763 8.06438L0.0457623 24.4321C0.0164543 24.4863 0 24.5489 0 24.6151C0 24.8276 0.170703 24.9992 0.382028 24.9992H3.19971V24.9987H5.77983L5.77778 24.9998H5.93872L6.17318 24.9992H6.17421C6.31869 24.9992 6.44467 24.9181 6.50894 24.7986C6.50894 24.7986 6.50945 24.7986 6.50945 24.7981L6.73106 24.429C6.74134 24.415 6.7506 24.4005 6.75883 24.3855C6.75883 24.3855 6.75934 24.3855 6.75934 24.3845L6.99998 23.9848C9.07005 20.5466 11.0429 17.2644 13.1104 13.8422C13.1223 13.8246 13.1331 13.8065 13.1433 13.7884Z" fill="white" />
<path d="M84.9771 18.1896L84.7356 17.7922L84.7372 17.7906L82.9705 14.8915C82.705 14.4544 82.7506 13.7969 83.1545 13.4891C84.4869 12.4746 85.3338 10.7451 85.3338 9.1756C85.3338 6.7668 83.1385 4.17139 80.4577 4.17139H80.0162H73.738C73.7332 4.17139 73.7292 4.1722 73.7244 4.1722H72.8967C72.5624 4.1722 72.2897 4.44845 72.2897 4.7853V6.5075C72.2897 6.84515 72.5624 7.1206 72.8967 7.1206H75.344H80.0162C80.0226 7.1206 80.029 7.1206 80.0354 7.12141C80.3049 7.12302 80.5632 7.17149 80.8032 7.25712C81.6013 7.56085 82.1692 8.33954 82.1692 9.25234C82.1692 10.2144 81.5373 11.0278 80.6688 11.292C80.4617 11.3469 80.2425 11.376 80.0162 11.376H79.901H73.7412H73.7085C73.6589 11.3768 73.6093 11.38 73.5613 11.3857H72.8967C72.8831 11.3857 72.8703 11.3865 72.8567 11.3881C72.54 11.4083 72.2897 11.6733 72.2897 11.998C72.2897 11.9988 72.2897 11.9988 72.2897 11.9996V13.6709C72.2897 13.6911 72.2905 13.7105 72.2929 13.7291V16.8544C72.2905 16.8729 72.2897 16.8923 72.2897 16.9125V19.3843C72.2897 19.7212 72.5624 19.9975 72.8967 19.9975H73.6685C73.6877 19.9983 73.7069 19.9999 73.7268 19.9999C73.746 19.9999 73.7652 19.9983 73.7844 19.9975H74.5514C74.8849 19.9975 75.1584 19.7212 75.1584 19.3843V18.6113C75.1592 18.5919 75.1616 18.5717 75.1616 18.5515C75.1616 18.537 75.16 18.5241 75.1592 18.5103L75.1608 16.6613C75.1552 16.629 75.152 16.5959 75.152 16.562V14.8907C75.152 14.553 75.4247 14.2775 75.759 14.2775H78.2063C78.2279 14.2775 78.2495 14.2792 78.2711 14.2808H78.615V14.2816C79.0181 14.2816 79.3684 14.5005 79.5611 14.826H79.5627L81.2454 17.5911C81.2478 17.5951 81.2494 17.5991 81.2518 17.6024L82.2811 19.2939L82.5147 19.6768C82.5195 19.6857 82.525 19.6945 82.5298 19.7026C82.637 19.8811 82.8306 19.9999 83.0529 19.9999H83.508C83.5104 19.9999 83.512 19.9999 83.5144 19.9999C83.5152 19.9999 83.5167 19.9999 83.5175 19.9999H84.9851C85.3226 19.9999 85.5961 19.7236 85.5961 19.3827C85.5961 19.2551 85.5578 19.1364 85.4922 19.0378L84.9771 18.1896Z" fill="white" />
<path d="M67.2056 17.1015H66.4338C66.4154 17.1007 66.397 17.0991 66.3786 17.0991H57.2429C57.2238 17.0991 57.2062 17.1007 57.1878 17.1015H56.4152C56.0817 17.1015 55.8082 17.3778 55.8082 17.7147V19.3859C55.8082 19.7236 56.0817 19.9991 56.4152 19.9991H58.8625C58.8809 19.9991 58.8993 19.9983 58.9176 19.9966H64.7031C64.7215 19.9983 64.7399 19.9991 64.7583 19.9991H67.2056C67.5399 19.9991 67.8126 19.7236 67.8126 19.3859V18.5475V17.7147C67.8126 17.3778 67.5399 17.1015 67.2056 17.1015Z" fill="white" />
<path d="M67.2056 10.6369H66.4058C66.3962 10.6369 66.3874 10.6353 66.3786 10.6353H57.2429C57.2334 10.6353 57.2246 10.6369 57.2158 10.6369H56.4152C56.0817 10.6369 55.8082 10.9123 55.8082 11.25V12.0844V12.9213C55.8082 13.2581 56.0817 13.5344 56.4152 13.5344H58.8625C58.8721 13.5344 58.8809 13.5336 58.8897 13.5328H64.7311C64.7399 13.5336 64.7495 13.5344 64.7583 13.5344H67.2056C67.5399 13.5344 67.8126 13.2581 67.8126 12.9213V12.0844V11.25C67.8126 10.9123 67.5399 10.6369 67.2056 10.6369Z" fill="white" />
<path d="M67.2056 4.17188H66.3882C66.385 4.17188 66.3818 4.17188 66.3786 4.17188H57.2429C57.2389 4.17188 57.2357 4.17188 57.2326 4.17188H56.4152C56.0817 4.17188 55.8082 4.44813 55.8082 4.78498V6.45628C55.8082 6.79394 56.0817 7.06939 56.4152 7.06939H58.8625C58.8665 7.06939 58.8697 7.06939 58.8729 7.06939H64.7479C64.7519 7.06939 64.7551 7.06939 64.7583 7.06939H67.2056C67.5399 7.06939 67.8126 6.79394 67.8126 6.45628V5.62023V4.78498C67.8126 4.44813 67.5399 4.17188 67.2056 4.17188Z" fill="white" />
<path d="M50.7665 4.17215H49.9515C49.9467 4.17215 49.9427 4.17135 49.9387 4.17135H44.9514C44.9186 4.16892 44.8866 4.1665 44.853 4.1665C44.8162 4.1665 44.7811 4.16973 44.7451 4.17215H44.0261C43.6918 4.17215 43.4191 4.44841 43.4191 4.78526V6.45656V9.32257V14.8421V16.9141V19.3867C43.4191 19.7236 43.6918 19.999 44.0261 19.999H44.8522H44.853H45.6808C46.0143 19.999 46.2878 19.7236 46.2878 19.3867V18.5515C46.2878 18.5515 46.2878 18.5515 46.2878 18.5507V14.8421V9.32338V8.51802V8.1836C46.2878 8.17795 46.2886 8.17229 46.2886 8.16663V7.68277C46.2886 7.34593 46.5613 7.06967 46.8956 7.06967H47.3915V7.06886H47.7218H48.3064C48.3104 7.06967 48.3144 7.06967 48.3192 7.06967H50.7665C51.1 7.06967 51.3735 6.79422 51.3735 6.45656V5.62132C51.3735 5.62132 51.3735 5.62132 51.3735 5.62051V4.78526C51.3735 4.44841 51.1 4.17215 50.7665 4.17215Z" fill="white" />
<path d="M41.3876 4.17188H40.5599H40.164H39.7673H38.9403C38.606 4.17188 38.3333 4.44813 38.3333 4.78498V6.45628C38.3333 6.79394 38.606 7.06939 38.9403 7.06939H39.7673H40.164H40.5599H41.3876C41.7211 7.06939 41.9946 6.79394 41.9946 6.45628V4.78498C41.9946 4.44813 41.7211 4.17188 41.3876 4.17188Z" fill="white" />
<path d="M104.124 19.1776C104.124 19.1759 104.123 19.1743 104.123 19.1727L104.105 19.1347C104.103 19.1299 104.101 19.1251 104.099 19.1202L97.9053 5.06883L97.6854 4.54539C97.6838 4.54054 97.6822 4.53569 97.6798 4.53165C97.5878 4.31921 97.3783 4.17139 97.1351 4.17139H96.0363C95.7955 4.17139 95.5876 4.31679 95.4948 4.5252C95.4916 4.53166 95.4884 4.53812 95.486 4.54458L95.2525 5.06883L91.8727 12.7387L91.1097 14.4504L90.957 14.7929C90.9546 14.7978 90.9522 14.8034 90.9498 14.8091C90.9194 14.8818 90.9034 14.9609 90.9034 15.0449C90.9034 15.3858 91.1769 15.6629 91.5152 15.6629H93.3203C93.5738 15.6629 93.7905 15.507 93.8833 15.2857L93.9233 15.1968L94.0609 14.8882C94.0696 14.8721 94.0785 14.8559 94.0865 14.839L94.108 14.7913L94.116 14.7719L94.4159 14.0918L94.7303 13.3866C94.7391 13.3672 94.747 13.347 94.7534 13.326L95.5612 11.4939L96.2658 9.89533C96.317 9.77174 96.4385 9.68531 96.5793 9.68531C96.7113 9.68531 96.8264 9.76123 96.8824 9.87271C96.8864 9.87998 96.8896 9.88725 96.8928 9.89533L97.5974 11.4939L99.3873 15.5538L99.8591 16.6242H99.8583C99.8759 16.6645 99.8855 16.7098 99.8855 16.7574C99.8855 16.9481 99.7328 17.1016 99.5448 17.1016H98.3964C98.394 17.1016 98.3916 17.1016 98.3892 17.1016H98.3468C98.3444 17.1016 98.342 17.1016 98.3396 17.1016H90.8794C90.8786 17.1016 90.8778 17.1016 90.8778 17.1016H90.7442C90.7402 17.1016 90.7354 17.1024 90.7314 17.1024H90.3244C90.0892 17.1024 89.8869 17.2397 89.7909 17.4384L89.7733 17.478L89.1895 18.7866L89.0367 19.1291C89.0343 19.1339 89.0319 19.1396 89.0295 19.1452C88.9992 19.2179 88.9832 19.2971 88.9832 19.3811C88.9832 19.722 89.2567 19.9991 89.595 19.9991H90.7434H90.7442H93.1915C93.1923 19.9991 93.1931 19.9991 93.1931 19.9991H103.572C103.9 19.9991 104.167 19.7309 104.167 19.3989C104.167 19.3205 104.152 19.2454 104.124 19.1776Z" fill="white" />
</svg>

<svg width="104" height="25" viewBox="0 0 105 25" fill="none" xmlns="http://www.w3.org/2000/svg"><path d="M29.973 24.46l-.001-.003-.004-.01a.102.102 0 00-.008-.015.32.32 0 00-.017-.032L15.334.207 15.33.2l-.016-.027a.38.38 0 00-.656.028 816.62 816.62 0 01-2.964 4.88.842.842 0 000 .967c1.31 2.151 2.614 4.308 3.925 6.459a.916.916 0 010 1.047c-2.154 3.556-4.438 7.3-6.602 10.875a.384.384 0 00.336.567h6.032v.001h.29a.378.378 0 00.336-.203h.001l.218-.365 2.914-4.836a.382.382 0 01.66-.02l.003.004 2.901 4.764.266.442c.065.12.19.201.336.201h.177c.03.002.059.002.088 0h6.043a.383.383 0 00.355-.525z" fill="#fff"/><path d="M13.143 13.788l.21-.349a.755.755 0 000-.857l-1.298-2.115-1.485-2.42a.382.382 0 00-.662.017L.046 24.432A.384.384 0 00.382 25H5.78h-.002.396a.38.38 0 00.335-.2l.222-.37a.392.392 0 00.028-.043v-.002l.241-.4c2.07-3.437 4.043-6.72 6.11-10.142a.775.775 0 00.033-.054zM84.977 18.19l-.241-.398.001-.001-1.766-2.9c-.266-.437-.22-1.094.183-1.402 1.333-1.014 2.18-2.744 2.18-4.313 0-2.41-2.196-5.005-4.876-5.005h-6.72l-.014.001h-.827a.612.612 0 00-.607.613v1.723c0 .337.272.613.607.613H80.036c.269.002.527.05.767.136a2.131 2.131 0 011.366 1.995c0 .962-.632 1.776-1.5 2.04a2.546 2.546 0 01-.653.084H73.71c-.05 0-.1.004-.148.01h-.664c-.014 0-.027 0-.04.002a.609.609 0 00-.567.61v1.672c0 .021 0 .04.003.06v3.124a.454.454 0 00-.003.059v2.471c0 .337.272.613.607.613h.771c.02.001.039.003.059.003l.057-.003h.767a.612.612 0 00.607-.613v-.773c.001-.02.004-.04.004-.06 0-.014-.002-.027-.003-.04l.002-1.85a.58.58 0 01-.009-.099v-1.671c0-.338.273-.614.607-.614h2.447c.022 0 .043.002.065.004h.344c.403 0 .753.22.946.545h.002l1.682 2.765.007.011 1.03 1.692.233.383c.004.009.01.018.015.026.107.178.3.297.523.297H84.985a.62.62 0 00.507-.962l-.515-.848zM67.206 17.102h-.772l-.055-.003h-9.136c-.02 0-.037.002-.055.003h-.773a.612.612 0 00-.607.613v1.67c0 .339.274.614.607.614h2.447c.019 0 .037 0 .056-.002h5.785a.6.6 0 00.055.002h2.448a.611.611 0 00.607-.613V17.715a.612.612 0 00-.607-.613zM67.206 10.637h-.8l-.027-.002h-9.136l-.027.002h-.8a.612.612 0 00-.608.613V12.921c0 .337.274.613.607.613h2.447l.028-.001h5.841a.31.31 0 00.027.001h2.448a.612.612 0 00.607-.613V11.25a.611.611 0 00-.607-.613zM67.206 4.172H56.415a.612.612 0 00-.607.613v1.671c0 .338.274.613.607.613h10.791a.611.611 0 00.607-.613V4.785a.612.612 0 00-.607-.613zM50.767 4.172H44.95c-.032-.003-.064-.005-.098-.005-.037 0-.072.003-.108.005h-.719a.612.612 0 00-.607.613v14.602c0 .337.273.612.607.612H45.681a.612.612 0 00.607-.612v-.835V8.184v-.501c0-.337.273-.613.608-.613h.495v-.001h3.375a.612.612 0 00.608-.612V4.785a.612.612 0 00-.608-.613zM41.388 4.172H38.94a.612.612 0 00-.607.613v1.671c0 .338.273.613.607.613h2.448a.612.612 0 00.607-.613V4.785a.612.612 0 00-.607-.613zM104.124 19.178l-.001-.005-.018-.038a2.147 2.147 0 01-.006-.015L97.905 5.07l-.22-.524a.594.594 0 00-.55-.374h-1.099a.594.594 0 00-.541.354c-.003.007-.007.013-.009.02l-.234.524-3.38 7.67-.762 1.711-.153.343a.607.607 0 00-.054.252c0 .34.274.618.612.618h1.805c.254 0 .47-.156.563-.377l.04-.09.138-.308.025-.049.022-.048.008-.02.3-.68.314-.704a.499.499 0 00.023-.061l.808-1.832.705-1.599a.34.34 0 01.627 0l.704 1.599 1.79 4.06.472 1.07a.342.342 0 01-.314.477h-8.801l-.013.001h-.407a.592.592 0 00-.533.336l-.018.04-.584 1.309-.152.342-.008.016a.615.615 0 00.566.854H103.572a.598.598 0 00.552-.821z" fill="#fff"/></svg>
